static/img/kroki/ee91b80e85ae7b07b85f310256c49086.svg

<?xml version="1.0" encoding="us-ascii" standalone="no"?><svg xmlns="http://www.w3.org/2000/svg" xmlns:xlink="http://www.w3.org/1999/xlink" contentStyleType="text/css" height="374px" preserveAspectRatio="none" style="width:349px;height:374px;" version="1.1" viewBox="0 0 349 374" width="349px" zoomAndPan="magnify"><defs/><g><!--class kubernetes_pod_disruption_budget--><g id="elem_kubernetes_pod_disruption_budget"><rect codeLine="23" fill="#3D176E" height="39.7891" id="kubernetes_pod_disruption_budget" rx="2.5" ry="2.5" style="stroke:#000D19;stroke-width:0.5;" width="335" x="7" y="328.58"/><ellipse cx="22" cy="348.4745" fill="#ADD1B2" rx="11" ry="11" style="stroke:#181818;stroke-width:1.0;"/><path d="M24.9688,354.1152 Q24.3906,354.412 23.75,354.5527 Q23.1094,354.7089 22.4063,354.7089 Q19.9063,354.7089 18.5781,353.0683 Q17.2656,351.412 17.2656,348.287 Q17.2656,345.162 18.5781,343.5058 Q19.9063,341.8495 22.4063,341.8495 Q23.1094,341.8495 23.75,342.0058 Q24.4063,342.162 24.9688,342.4589 L24.9688,345.1777 Q24.3438,344.5995 23.75,344.3339 Q23.1563,344.0527 22.5313,344.0527 Q21.1875,344.0527 20.5,345.1308 Q19.8125,346.1933 19.8125,348.287 Q19.8125,350.3808 20.5,351.4589 Q21.1875,352.5214 22.5313,352.5214 Q23.1563,352.5214 23.75,352.2558 Q24.3438,351.9745 24.9688,351.3964 L24.9688,354.1152 Z " fill="#000000"/><text fill="#D9B8FF" font-family="Helvetica" font-size="17" lengthAdjust="spacing" textLength="293" x="41" y="354.3598">kubernetes_pod_disruption_budget</text></g><!--class kubernetes_resource--><g id="elem_kubernetes_resource"><rect codeLine="26" fill="#3D176E" height="39.7891" id="kubernetes_resource" rx="2.5" ry="2.5" style="stroke:#000D19;stroke-width:0.5;" width="216" x="66.5" y="167.79"/><ellipse cx="81.5" cy="187.6845" fill="#ADD1B2" rx="11" ry="11" style="stroke:#181818;stroke-width:1.0;"/><path d="M84.4688,193.3252 Q83.8906,193.622 83.25,193.7627 Q82.6094,193.9189 81.9063,193.9189 Q79.4063,193.9189 78.0781,192.2783 Q76.7656,190.622 76.7656,187.497 Q76.7656,184.372 78.0781,182.7158 Q79.4063,181.0595 81.9063,181.0595 Q82.6094,181.0595 83.25,181.2158 Q83.9063,181.372 84.4688,181.6689 L84.4688,184.3877 Q83.8438,183.8095 83.25,183.5439 Q82.6563,183.2627 82.0313,183.2627 Q80.6875,183.2627 80,184.3408 Q79.3125,185.4033 79.3125,187.497 Q79.3125,189.5908 80,190.6689 Q80.6875,191.7314 82.0313,191.7314 Q82.6563,191.7314 83.25,191.4658 Q83.8438,191.1845 84.4688,190.6064 L84.4688,193.3252 Z " fill="#000000"/><text fill="#D9B8FF" font-family="Helvetica" font-size="17" lengthAdjust="spacing" textLength="174" x="100.5" y="193.5698">kubernetes_resource</text></g><!--class resource--><g id="elem_resource"><rect codeLine="29" fill="#3D176E" height="39.7891" id="resource" rx="2.5" ry="2.5" style="stroke:#000D19;stroke-width:0.5;" width="113" x="118" y="7"/><ellipse cx="133" cy="26.8945" fill="#ADD1B2" rx="11" ry="11" style="stroke:#181818;stroke-width:1.0;"/><path d="M135.9688,32.5352 Q135.3906,32.832 134.75,32.9727 Q134.1094,33.1289 133.4063,33.1289 Q130.9063,33.1289 129.5781,31.4883 Q128.2656,29.832 128.2656,26.707 Q128.2656,23.582 129.5781,21.9258 Q130.9063,20.2695 133.4063,20.2695 Q134.1094,20.2695 134.75,20.4258 Q135.4063,20.582 135.9688,20.8789 L135.9688,23.5977 Q135.3438,23.0195 134.75,22.7539 Q134.1563,22.4727 133.5313,22.4727 Q132.1875,22.4727 131.5,23.5508 Q130.8125,24.6133 130.8125,26.707 Q130.8125,28.8008 131.5,29.8789 Q132.1875,30.9414 133.5313,30.9414 Q134.1563,30.9414 134.75,30.6758 Q135.3438,30.3945 135.9688,29.8164 L135.9688,32.5352 Z " fill="#000000"/><text fill="#D9B8FF" font-family="Helvetica" font-size="17" lengthAdjust="spacing" textLength="71" x="152" y="32.7798">resource</text></g><!--reverse link kubernetes_resource to kubernetes_pod_disruption_budget--><g id="link_kubernetes_resource_kubernetes_pod_disruption_budget"><path codeLine="32" d="M174.5,225.84 C174.5,256.36 174.5,297.69 174.5,328.25 " fill="none" id="kubernetes_resource-backto-kubernetes_pod_disruption_budget" style="stroke:#FFAF37;stroke-width:2.0;"/><polygon fill="none" points="174.5,207.84,168.5,225.84,180.5,225.84,174.5,207.84" style="stroke:#FFAF37;stroke-width:2.0;"/></g><!--reverse link resource to kubernetes_resource--><g id="link_resource_kubernetes_resource"><path codeLine="33" d="M174.5,65.05 C174.5,95.57 174.5,136.9 174.5,167.46 " fill="none" id="resource-backto-kubernetes_resource" style="stroke:#FFAF37;stroke-width:2.0;"/><polygon fill="none" points="174.5,47.05,168.5,65.05,180.5,65.05,174.5,47.05" style="stroke:#FFAF37;stroke-width:2.0;"/></g><!--SRC=[XTBBQiCm40NGlRv2a7KWRcYJG3TfeBIRK9hkZUmPnSAsP4QZXlJnxusRfYXs7jkv1ysLK6409TODRsMDTORaXI-DRHIfMiw9t6RXAaToeBNIuqatV7IMhuAbgb4-OVMER7BL5M-5oKkBtikRA7fGURac5opiZsTIrkyYj1ofHQMydpEJoG9ZL0PcsLJhhkmUEXX3Chd37dC4I7zaD1f1CkkIgwiktljVhCm7oYH-jALZxDNihVXL5rks8YhPk-WXFzlnHG4OkvQtqUnrtuaiqj5yLIXmcrPhLVbuZMSaTBnjSD6x5Swce2SdyVCvBFBswMGPTZ_L8gDF6mSf64-XOUDicWLO8yjF8Rxxbj2xG3d6yV7i5Bx_6Ww7LrUAy_wGY1y0]--></g></svg>

<svg xmlns="http://www.w3.org/2000/svg" width="349" height="374" viewBox="0 0 349 374"><rect width="335" height="39.789" x="7" y="328.58" fill="#3D176E" rx="2.5" ry="2.5" style="stroke:#000d19;stroke-width:.5"/><circle cx="22" cy="348.474" r="11" fill="#ADD1B2" style="stroke:#181818;stroke-width:1"/><path d="M24.969 354.115q-.578.297-1.219.438-.64.156-1.344.156-2.5 0-3.828-1.64-1.312-1.657-1.312-4.782t1.312-4.781q1.328-1.656 3.828-1.656.703 0 1.344.156.656.156 1.219.453v2.719q-.625-.579-1.219-.844-.594-.281-1.219-.281-1.343 0-2.031 1.078-.687 1.062-.687 3.156t.687 3.172q.688 1.062 2.031 1.062.625 0 1.219-.265.594-.281 1.219-.86z"/><text x="41" y="354.36" fill="#D9B8FF" font-family="Helvetica" font-size="17" textLength="293">kubernetes_pod_disruption_budget</text><rect width="216" height="39.789" x="66.5" y="167.79" fill="#3D176E" rx="2.5" ry="2.5" style="stroke:#000d19;stroke-width:.5"/><circle cx="81.5" cy="187.685" r="11" fill="#ADD1B2" style="stroke:#181818;stroke-width:1"/><path d="M84.469 193.325q-.578.297-1.219.438-.64.156-1.344.156-2.5 0-3.828-1.64-1.312-1.657-1.312-4.782t1.312-4.781q1.328-1.656 3.828-1.656.703 0 1.344.156.656.156 1.219.453v2.719q-.625-.578-1.219-.844-.594-.281-1.219-.281-1.344 0-2.031 1.078-.687 1.062-.687 3.156t.687 3.172q.688 1.062 2.031 1.062.625 0 1.219-.265.594-.281 1.219-.86z"/><text x="100.5" y="193.57" fill="#D9B8FF" font-family="Helvetica" font-size="17" textLength="174">kubernetes_resource</text><rect width="113" height="39.789" x="118" y="7" fill="#3D176E" rx="2.5" ry="2.5" style="stroke:#000d19;stroke-width:.5"/><circle cx="133" cy="26.895" r="11" fill="#ADD1B2" style="stroke:#181818;stroke-width:1"/><path d="M135.969 32.535q-.578.297-1.219.438-.64.156-1.344.156-2.5 0-3.828-1.64-1.312-1.657-1.312-4.782t1.312-4.781q1.328-1.656 3.828-1.656.703 0 1.344.156.656.156 1.219.453v2.719q-.625-.578-1.219-.844-.594-.281-1.219-.281-1.344 0-2.031 1.078-.687 1.062-.687 3.156t.687 3.172q.688 1.062 2.031 1.062.625 0 1.219-.265.594-.281 1.219-.86z"/><text x="152" y="32.78" fill="#D9B8FF" font-family="Helvetica" font-size="17" textLength="71">resource</text><path fill="none" d="M174.5 225.84v102.41m0-120.41-6 18h12zm0-142.79v102.41m0-120.41-6 18h12z" style="stroke:#ffaf37;stroke-width:2"/></svg>
